icons/linear-ele-other-magic-stick.svg

<svg xmlns="http://www.w3.org/2000/svg" width="32px" height="32px" viewBox="0 0 32 32" version="1.1">
    <title>linear-ele-other-magic-stick</title>
    <g id="linear-ele-other-magic-stick" stroke-width="1" fill-rule="evenodd">
        <path d="M11.7928932,17.7928932 C12.1834175,17.4023689 12.8165825,17.4023689 13.2071068,17.7928932 C13.5976311,18.1834175 13.5976311,18.8165825 13.2071068,19.2071068 L4.70710678,27.7071068 C4.31658249,28.0976311 3.68341751,28.0976311 3.29289322,27.7071068 C2.90236893,27.3165825 2.90236893,26.6834175 3.29289322,26.2928932 L11.7928932,17.7928932 Z M8.79289322,4.79289322 C9.18341751,4.40236893 9.81658249,4.40236893 10.2071068,4.79289322 L13.2071068,7.79289322 C13.5976311,8.18341751 13.5976311,8.81658249 13.2071068,9.20710678 C12.8165825,9.59763107 12.1834175,9.59763107 11.7928932,9.20710678 L8.79289322,6.20710678 C8.40236893,5.81658249 8.40236893,5.18341751 8.79289322,4.79289322 Z M24.7928932,4.79289322 C25.1834175,4.40236893 25.8165825,4.40236893 26.2071068,4.79289322 C26.5976311,5.18341751 26.5976311,5.81658249 26.2071068,6.20710678 L23.2071068,9.20710678 C22.8165825,9.59763107 22.1834175,9.59763107 21.7928932,9.20710678 C21.4023689,8.81658249 21.4023689,8.18341751 21.7928932,7.79289322 L24.7928932,4.79289322 Z M21.7928932,17.7928932 C22.1834175,17.4023689 22.8165825,17.4023689 23.2071068,17.7928932 L26.2071068,20.7928932 C26.5976311,21.1834175 26.5976311,21.8165825 26.2071068,22.2071068 C25.8165825,22.5976311 25.1834175,22.5976311 24.7928932,22.2071068 L21.7928932,19.2071068 C21.4023689,18.8165825 21.4023689,18.1834175 21.7928932,17.7928932 Z M10.5,12.5 C11.0522847,12.5 11.5,12.9477153 11.5,13.5 C11.5,14.0522847 11.0522847,14.5 10.5,14.5 L6.5,14.5 C5.94771525,14.5 5.5,14.0522847 5.5,13.5 C5.5,12.9477153 5.94771525,12.5 6.5,12.5 L10.5,12.5 Z M28.5,12.5 C29.0522847,12.5 29.5,12.9477153 29.5,13.5 C29.5,14.0522847 29.0522847,14.5 28.5,14.5 L24.5,14.5 C23.9477153,14.5 23.5,14.0522847 23.5,13.5 C23.5,12.9477153 23.9477153,12.5 24.5,12.5 L28.5,12.5 Z M17.5,19.5 C18.0522847,19.5 18.5,19.9477153 18.5,20.5 L18.5,24.5 C18.5,25.0522847 18.0522847,25.5 17.5,25.5 C16.9477153,25.5 16.5,25.0522847 16.5,24.5 L16.5,20.5 C16.5,19.9477153 16.9477153,19.5 17.5,19.5 Z M17.5,1.5 C18.0522847,1.5 18.5,1.94771525 18.5,2.5 L18.5,6.5 C18.5,7.05228475 18.0522847,7.5 17.5,7.5 C16.9477153,7.5 16.5,7.05228475 16.5,6.5 L16.5,2.5 C16.5,1.94771525 16.9477153,1.5 17.5,1.5 Z" id="&#24418;&#29366;" fill-rule="nonzero" />
    </g>
</svg>

<svg xmlns="http://www.w3.org/2000/svg" viewBox="0 0 32 32"><path fill="currentColor" d="M11.793 17.793a1 1 0 0 1 1.414 1.414l-8.5 8.5a1 1 0 1 1-1.414-1.414zm-3-13a1 1 0 0 1 1.414 0l3 3a1 1 0 1 1-1.414 1.414l-3-3a1 1 0 0 1 0-1.414m16 0a1 1 0 0 1 1.414 1.414l-3 3a1 1 0 0 1-1.414-1.414zm-3 13a1 1 0 0 1 1.414 0l3 3a1 1 0 0 1-1.414 1.414l-3-3a1 1 0 0 1 0-1.414M10.5 12.5a1 1 0 0 1 0 2h-4a1 1 0 0 1 0-2zm18 0a1 1 0 0 1 0 2h-4a1 1 0 0 1 0-2zm-11 7a1 1 0 0 1 1 1v4a1 1 0 0 1-2 0v-4a1 1 0 0 1 1-1m0-18a1 1 0 0 1 1 1v4a1 1 0 0 1-2 0v-4a1 1 0 0 1 1-1"/></svg>
